X:01
T:Bog an Lochan
N:"Bog an Lochan" is Scots Gaelic for the name of a bird, the water ouzel, and it was an epithet of
N:the founder of the Cape Breton Island family of fiddlers ever afterward known as the Bog an Lochan
N:Macdonalds [MR, who heard the story from pianist Barbara Macdonald Magone, a member of this
N:family].
M:4/4
L:1/8
K:D
|:"Em"E2 E2 E3/2F/B3/2F/|E2 E2 "D"F3/2D/A3/2F/|"Em"E2 E2 E3/2F/B3/2A/|\
"G"B/d3/2 "D"A/d3/2 "Bm"F/D3/2"D"A3/2F/:|
|:"Em"B2 B3/2A/ B/E3/2 E2|B2 B3/2A/ "D"F/D3/2 D2|\
"Em"B2 B3/2A/ "Bm"d3/2e/f3/2e/|"G"d/c/B/A/ d3/2A/ "D"F/D3/2D3/2F/:|
"Em"e2 e2 e3/2f/b3/2f/|e2 e2 "D"f/d3/2a3/2f/|"Em"e2 e2 e3/2f/b3/2f/|\
"G"g3/2e/b3/2e/ "D"d3/2f/a3/2f/|
"Em"g/e3/2b3/2e/ g/e3/2b3/2e/|g/e3/2b3/2e/ "D"d3/2f/a3/2f/|\
"C"g/e3/2 e2 "Bm"d3/2e/f3/2e/|"G"d/c/B/A/ d3/2A/ "D"F/D3/2D3/2A/|]
|:"Em"B2 B3/2A/ B/E3/2 E2|B2 B3/2A/ "D"F/D3/2 D2|\
"Em"B2 B3/2A/ "Bm"d3/2e/f3/2e/|"G"d/c/B/A/ d3/2A/ "D"F/D3/2D3/2F/:|"Em"E4|]

